X:4465
T:Mulqueeney's
O:england
M:4/4
L:1/8
S:Tommy Peoples/Matt Molloy/Paul Brady
K:G
(3GBd g2fedf|eA^ce d2gf|dece dGBd|cBAG ~F2D2|(3GBd gd fedf|eA^ce d2gf|de
ce
dGBd|\
cAFD G4::(3GBd g2(3GBd g2|(3GBd gBeB d2|(3FAd f2(3FAd f2|(3FAd fe (3ded
(3cBA|\
(3GBd g2(3GBd g2|(3GBd gBeB dg|~f2ed eA^ce|1dgfe (3ded (3cBA:|2dgfe defg
|:\
~a2ba afab|afab a2fe|defg adfa|bfge defg|~a2ba afab|afab a2fe|de (3fed
BdAF|1G2B d2e fg:|\
2G2Bd (3gfe dB||


